icon-svg/intel-cpu.svg

<svg xmlns="http://www.w3.org/2000/svg" fill="#44739e" viewBox="0 0 24 24"><path d="M13.662 13.534a1.25 1.25 0 0 0 .421.279 1.39 1.39 0 0 0 .54.1 1.426 1.426 0 0 0 1.121-.495l-.478-.365a.874.874 0 0 1-.638.281.75.75 0 0 1-.458-.129.644.644 0 0 1-.24-.349l-.008-.024H15.9V12.6a1.33 1.33 0 0 0-.1-.51 1.27 1.27 0 0 0-.268-.416 1.22 1.22 0 0 0-.41-.279 1.37 1.37 0 0 0-.527-.1 1.3 1.3 0 0 0-.927.384 1.35 1.35 0 0 0-.281.416 1.27 1.27 0 0 0-.1.512 1.34 1.34 0 0 0 .1.511 1.27 1.27 0 0 0 .275.416m.937-1.67a.613.613 0 0 1 .669.506H13.93a.613.613 0 0 1 .67-.506zm-2.399 1.79a.7.7 0 0 0 .324.182 2 2 0 0 0 .506.055h.081v-.615a1.7 1.7 0 0 1-.24-.015.27.27 0 0 1-.155-.069.263.263 0 0 1-.069-.151 1.5 1.5 0 0 1-.014-.244v-.882h.48v-.567h-.48v-.983h-.664V12.8a2.17 2.17 0 0 0 .054.519.715.715 0 0 0 .177.335m4.051-3.483h.663v3.696h-.663zm-6.498 2.443v-.046a.766.766 0 0 1 .176-.523.573.573 0 0 1 .421-.179.538.538 0 0 1 .434.173.735.735 0 0 1 .145.483v1.339h.67v-1.43a1.17 1.17 0 0 0-.275-.837 1.109 1.109 0 0 0-1.209-.2.93.93 0 0 0-.33.269l-.037.047v-.363h-.655v2.521h.66zm-1.709-1.268h.665v2.521h-.665zm-.019-1.125h.7v.7h-.7zM6.724 5.262a1.7 1.7 0 0 0-.391 1.1v11.277a1.7 1.7 0 0 0 .391 1.1 1.244 1.244 0 0 0 .943.456H17a1.244 1.244 0 0 0 .942-.456 1.694 1.694 0 0 0 .391-1.1V6.361a1.692 1.692 0 0 0-.391-1.1A1.248 1.248 0 0 0 17 4.805H7.667a1.248 1.248 0 0 0-.943.457m9.726.471a.876.876 0 0 1 .876.876V17.39a.876.876 0 0 1-.876.876H8.217a.876.876 0 0 1-.876-.876V6.609a.876.876 0 0 1 .876-.876ZM4.333 11.611h1.333v.778H4.333Zm1.334-5.25a2.54 2.54 0 0 1 .586-1.649 1.865 1.865 0 0 1 1.414-.684h2.166V2.666H4.667a.367.367 0 0 0-.334.389v6.028h1.334ZM12 2.667h.667v1.361H12Zm-1.5 0h.833v1.361H10.5Zm-6.167 10.5h1.333v.972H4.333Zm0-3.306h1.333v.972H4.333ZM20 2.667h-5.167v1.361H17a1.867 1.867 0 0 1 1.414.684A2.546 2.546 0 0 1 19 6.361v2.722h1.333V3.056A.364.364 0 0 0 20 2.667m-1 8.944h1.333v.778H19Zm0-1.75h1.333v.972H19ZM6.253 19.288a2.543 2.543 0 0 1-.586-1.649v-2.722H4.333v6.027a.366.366 0 0 0 .334.389h5.166v-1.361H7.667a1.865 1.865 0 0 1-1.414-.684M19 13.167h1.333v.972H19Zm-5.667-10.5h.833v1.361h-.833ZM10.5 19.972h.833v1.361H10.5Zm2.833 0h.833v1.361h-.833ZM19 17.639a2.548 2.548 0 0 1-.586 1.649 1.867 1.867 0 0 1-1.414.684h-2.167v1.361H20a.364.364 0 0 0 .333-.389v-6.027H19Zm-7 2.333h.667v1.361H12Z"/></svg>

<?xml version="1.0" encoding="UTF-8"?>
<svg width="24px" fill="#44739e" height="24px" viewBox="0 0 24 24" version="1.1" xmlns="http://www.w3.org/2000/svg" xmlns:xlink="http://www.w3.org/1999/xlink">
            <path d="m 13.662,13.534 a 1.254,1.254 0 0 0 0.421,0.279 1.39,1.39 0 0 0 0.54,0.1 1.426,1.426 0 0 0 1.121,-0.495 L 15.266,13.053 A 0.874,0.874 0 0 1 14.628,13.334 0.751,0.751 0 0 1 14.17,13.205 0.644,0.644 0 0 1 13.93,12.856 L 13.922,12.832 H 15.9 v -0.232 0 a 1.326,1.326 0 0 0 -0.1,-0.51 1.271,1.271 0 0 0 -0.268,-0.416 1.217,1.217 0 0 0 -0.41,-0.279 1.367,1.367 0 0 0 -0.527,-0.1 1.3,1.3 0 0 0 -0.927,0.384 1.345,1.345 0 0 0 -0.281,0.416 1.274,1.274 0 0 0 -0.1,0.512 1.336,1.336 0 0 0 0.1,0.511 1.272,1.272 0 0 0 0.275,0.416 z m 0.937,-1.67 a 0.613,0.613 0 0 1 0.669,0.506 H 13.93 a 0.613,0.613 0 0 1 0.67,-0.506 z m -2.399,1.79 a 0.7,0.7 0 0 0 0.324,0.182 1.987,1.987 0 0 0 0.506,0.055 h 0.081 v -0.615 a 1.687,1.687 0 0 1 -0.24,-0.015 0.269,0.269 0 0 1 -0.155,-0.069 0.263,0.263 0 0 1 -0.069,-0.151 1.5,1.5 0 0 1 -0.014,-0.244 v -0.882 h 0.48 v -0.567 h -0.48 V 10.365 H 11.969 V 12.8 a 2.17,2.17 0 0 0 0.054,0.519 0.715,0.715 0 0 0 0.177,0.335 z m 4.050999,-3.483 h 0.663 v 3.696 h -0.663 z M 9.753,12.614 v -0.046 a 0.766,0.766 0 0 1 0.176,-0.523 0.573,0.573 0 0 1 0.421,-0.179 0.538,0.538 0 0 1 0.434,0.173 0.735,0.735 0 0 1 0.145,0.483 v 1.339 h 0.67 v -1.43 a 1.17,1.17 0 0 0 -0.275,-0.837 1.109,1.109 0 0 0 -1.209,-0.2 0.929,0.929 0 0 0 -0.33,0.269 L 9.748,11.71 V 11.347 H 9.093 v 2.521 h 0.66 z M 8.0439997,11.346 h 0.665 v 2.521 h -0.665 z m -0.019,-1.125 h 0.7 v 0.7 h -0.7 z M 6.724,5.262 a 1.7,1.7 0 0 0 -0.391,1.1 v 11.277 a 1.7,1.7 0 0 0 0.391,1.1 1.244,1.244 0 0 0 0.943,0.456 H 17 a 1.244,1.244 0 0 0 0.942,-0.456 1.694,1.694 0 0 0 0.391,-1.1 V 6.361 A 1.692,1.692 0 0 0 17.942,5.261 1.248,1.248 0 0 0 17,4.805 H 7.667 A 1.248,1.248 0 0 0 6.724,5.262 Z m 9.726,0.471 a 0.876,0.876 0 0 1 0.876,0.876 V 17.39 A 0.876,0.876 0 0 1 16.45,18.266 H 8.217 A 0.876,0.876 0 0 1 7.341,17.39 V 6.609 A 0.876,0.876 0 0 1 8.217,5.733 Z M 4.3330002,11.611 h 1.3329999 v 0.778 H 4.3330002 Z M 5.667,6.361 A 2.541,2.541 0 0 1 6.253,4.712 1.865,1.865 0 0 1 7.667,4.028 H 9.833 V 2.666 H 4.667 A 0.367,0.367 0 0 0 4.333,3.055 V 9.083 H 5.667 Z M 12,2.6670001 h 0.667 V 4.028 H 12 Z m -1.5,0 h 0.833 V 4.028 H 10.5 Z M 4.3330002,13.167 h 1.3329999 v 0.972 H 4.3330002 Z m 0,-3.3059999 H 5.6660001 V 10.833 H 4.3330002 Z M 20,2.667 H 14.833 V 4.028 H 17 A 1.867,1.867 0 0 1 18.414,4.712 2.546,2.546 0 0 1 19,6.361 v 2.722 h 1.333 V 3.056 A 0.364,0.364 0 0 0 20,2.667 Z m -1,8.944 h 1.333 v 0.778 H 19 Z m 0,-1.7499999 h 1.333 V 10.833 H 19 Z M 6.253,19.288 A 2.543,2.543 0 0 1 5.667,17.639 v 0 -2.722 H 4.333 v 6.027 a 0.366,0.366 0 0 0 0.334,0.389 H 9.833 V 19.972 H 7.667 A 1.865,1.865 0 0 1 6.253,19.288 Z M 19,13.167 h 1.333 v 0.972 H 19 Z M 13.333,2.6670001 h 0.833 V 4.028 H 13.333 Z M 10.5,19.972 h 0.833 v 1.361 H 10.5 Z m 2.833,0 h 0.833 v 1.361 H 13.333 Z M 19,17.639 A 2.548,2.548 0 0 1 18.414,19.288 1.867,1.867 0 0 1 17,19.972 h -2.167 v 1.361 H 20 a 0.364,0.364 0 0 0 0.333,-0.389 V 14.917 H 19 Z m -7,2.333 h 0.667 v 1.361 H 12 Z"/>

</svg>
